packages/ui-icons/svg/Line/standards.svg

<svg viewBox="0 0 1920 1920" version="1.1" xmlns="http://www.w3.org/2000/svg">
    <path d="M1694.17647,1077.91059 C1694.17647,1401.14824 1224.00235,1657.97647 1023.30588,1767.64235 C997.442353,1781.76 975.870588,1793.50588 960.058824,1802.88 C944.247059,1793.50588 922.675294,1781.76 896.811765,1767.64235 C696.115294,1657.97647 225.941176,1401.14824 225.941176,1077.91059 L225.941176,437.534118 L960.058824,122.88 L1694.17647,437.534118 L1694.17647,1077.91059 Z M960.058824,0 L113,362.992941 L113,1077.91059 C113,1468.12235 624.397647,1747.53882 842.712941,1866.80471 C870.157647,1881.82588 892.407059,1893.91059 907.654118,1903.05882 L907.654118,1903.17176 C923.804706,1912.88471 941.875294,1917.74118 960.058824,1917.74118 C978.129412,1917.74118 996.312941,1912.88471 1012.46353,1903.05882 C1027.71059,1893.91059 1049.96,1881.82588 1077.40471,1866.80471 C1295.72,1747.53882 1807.11765,1468.12235 1807.11765,1077.91059 L1807.11765,362.992941 L960.058824,0 Z M604.689412,868.562824 L524.84,948.412235 L847.061176,1270.74635 L1451.74824,666.059294 L1371.89882,586.209882 L847.061176,1110.93459 L604.689412,868.562824 Z" stroke="none" stroke-width="1" fill-rule="evenodd"/>
</svg>

<svg viewBox="0 0 1920 1920" version="1.1" xmlns="http://www.w3.org/2000/svg">
    <path d="M1694.176 1077.91c0 323.238-470.174 580.066-670.87 689.732-25.864 14.118-47.435 25.864-63.247 35.238-15.812-9.374-37.384-21.12-63.247-35.238-200.697-109.666-670.87-366.494-670.87-689.731V437.534L960.058 122.88l734.117 314.654v640.377zM960.06 0L113 362.993v714.918c0 390.211 511.398 669.628 729.713 788.894 27.445 15.02 49.694 27.106 64.941 36.254v.113c16.15 9.713 34.221 14.57 52.405 14.57a100.79 100.79 0 0 0 52.405-14.683c15.247-9.148 37.496-21.233 64.94-36.254 218.316-119.266 729.714-398.683 729.714-788.894V362.993L960.058 0zm-355.37 868.563l-79.849 79.85 322.221 322.333 604.687-604.687-79.85-79.85-524.837 524.726L604.69 868.563z" stroke="none" stroke-width="1" fill-rule="evenodd"/>
</svg>
